svgs/light/gingerbread-man.svg

<svg xmlns="http://www.w3.org/2000/svg" viewBox="0 0 448 512"><!--! Font Awesome Pro 6.3.0 by @fontawesome - https://fontawesome.com License - https://fontawesome.com/license (Commercial License) Copyright 2023 Fonticons, Inc. --><path d="M191.1 78.99c-8.752 0-16 7.267-16 16.04s7.25 16.04 16 16.04c8.75 0 15.1-7.267 15.1-16.04S200.7 78.99 191.1 78.99zM224 335.6C223.1 335.6 224 335.6 224 335.6c-8.75 0-16.01 7.267-16.01 16.04c0 8.77 7.256 16.04 16.01 16.04c.002 0-.002 0 0 0c8.75 0 16.01-7.267 16.01-16.04C240 342.9 232.7 335.6 224 335.6zM224 271.4C223.1 271.4 224 271.4 224 271.4c-8.75 0-16.01 7.269-16.01 16.04S215.3 303.5 224 303.5c.002 0-.002 0 0 0c8.75 0 16.01-7.267 16.01-16.04S232.7 271.4 224 271.4zM224 207.3C223.1 207.3 224 207.3 224 207.3c-8.75 0-16.01 7.267-16.01 16.04C207.1 232.1 215.3 239.4 224 239.4c.002 0-.002 0 0 0c8.75 0 16.01-7.267 16.01-16.04C240 214.6 232.7 207.3 224 207.3zM430.9 226.9c-6.656-41.66-44.44-73.06-87.94-73.06h-11.87c4.469-12.51 6.781-25.82 6.781-39.4c0-30.85-11.81-59.86-33.25-81.69c-42.87-43.65-118.2-43.72-161.2 0c-21.44 21.83-33.25 50.83-33.25 81.69c0 13.58 2.312 26.89 6.781 39.4H105.1c-43.5 0-81.28 31.4-87.94 73.04c-4.062 25.54 2.969 51.4 19.31 70.94c14.56 17.48 35.12 28.33 57.34 30.52l-30.56 37.38c-15.66 19.03-23.16 44.29-20.5 69.31c2.531 23.68 13.72 44.4 31.22 58.18c34.16 27.99 90.44 22.49 119.5-12.76L224 443.1l30.62 37.41C271.1 500.5 295.2 512 320.9 512c19.5 0 38.37-6.672 52.87-18.56c17.75-13.99 28.94-34.7 31.47-58.4c2.656-25.01-4.844-50.27-20.47-69.25l-30.59-37.43c22.22-2.193 42.78-13.05 57.34-30.52C427.9 278.3 434.9 252.4 430.9 226.9zM387 277.3C386.1 277.3 387 277.3 387 277.3c-10.28 12.36-25.3 19.44-41.17 19.44h-22.97c-6.719 0-12.66 4.213-14.97 10.49c-2.844 5.654-2.156 12.45 1.844 17.37l50.34 61.61c10.25 12.42 15.09 29 13.37 45.48c-1.594 14.99-8.5 27.97-19.66 36.76c-21.06 17.32-56.41 13.77-74.47-8.253l-33.12-40.47C240.7 412.1 232.6 409.1 224 409.1s-16.69 3.853-22.25 10.6l-33.06 40.4c-18.12 22.05-53.09 25.87-74.75 8.081c-10.91-8.582-17.81-21.56-19.41-36.54c-1.719-16.49 3.125-33.08 13.41-45.54l50.31-61.56c3.062-3.759 3.75-9.584 2.625-14.64C140.8 309.2 140.6 308.4 140.3 307.7C138.1 301.1 132 296.7 125.1 296.7H102.2c-15.87 0-30.87-7.079-41.19-19.45C50.6 264.8 46.13 248.3 48.75 231.1c4.156-26.23 28.37-46.03 56.31-46.03h37.72c5.906 0 11.31-3.257 14.09-8.472c2.781-5.199 2.5-11.53-.7813-16.46C146.1 147.3 142.2 131.2 142.2 114.5c0-22.38 8.531-43.4 24.06-59.17c30.87-31.45 84.81-31.35 115.6 0c15.53 15.77 24.06 36.79 24.06 59.17c0 16.73-4.812 32.83-13.94 46.54c-3.281 4.933-3.562 11.26-.7813 16.46c2.781 5.215 8.187 8.472 14.09 8.472h37.72c27.94 0 52.16 19.8 56.31 46.04C401.9 248.3 397.4 264.8 387 277.3zM256 78.99c-8.75 0-15.1 7.267-15.1 16.04s7.25 16.04 15.1 16.04c8.752 0 16-7.267 16-16.04S264.8 78.99 256 78.99z"/></svg>

<svg xmlns="http://www.w3.org/2000/svg" viewBox="0 0 448 512"><!-- Font Awesome Pro 6.0.0-alpha2 by @fontawesome - https://fontawesome.com License - https://fontawesome.com/license (Commercial License) --><path d="M191.994 78.995C183.243 78.995 175.993 86.262 175.993 95.032S183.243 111.068 191.994 111.068C200.744 111.068 207.994 103.802 207.994 95.032S200.744 78.995 191.994 78.995ZM224.004 335.587C224.002 335.587 224.002 335.587 224 335.587S223.998 335.587 223.996 335.587C215.246 335.587 207.994 342.854 207.994 351.626C207.994 360.396 215.246 367.662 223.996 367.662C223.998 367.662 223.998 367.662 224 367.662S224.002 367.662 224.004 367.662C232.754 367.662 240.006 360.396 240.006 351.626C240.006 342.854 232.754 335.587 224.004 335.587ZM224.004 271.439C224.002 271.439 224.002 271.439 224 271.439S223.998 271.439 223.996 271.439C215.246 271.439 207.994 278.707 207.994 287.477S215.246 303.514 223.996 303.514C223.998 303.514 223.998 303.514 224 303.514S224.002 303.514 224.004 303.514C232.754 303.514 240.006 296.247 240.006 287.477S232.754 271.439 224.004 271.439ZM224.004 207.292C224.002 207.292 224.002 207.292 224 207.292S223.998 207.292 223.996 207.292C215.246 207.292 207.994 214.559 207.994 223.329C207.994 232.099 215.246 239.365 223.996 239.365C223.998 239.365 223.998 239.365 224 239.365S224.002 239.365 224.004 239.365C232.754 239.365 240.006 232.099 240.006 223.329C240.006 214.559 232.754 207.292 224.004 207.292ZM430.873 226.911C424.217 185.253 386.436 153.854 342.936 153.854H331.061C335.53 141.341 337.843 128.029 337.843 114.451C337.843 83.599 326.03 54.595 304.593 32.764C261.718 -10.882 186.407 -10.961 143.407 32.764C121.97 54.595 110.157 83.599 110.157 114.451C110.157 128.029 112.47 141.341 116.938 153.854H105.064C61.564 153.854 23.783 185.253 17.127 226.895C13.064 252.438 20.096 278.294 36.439 297.839C51.002 315.316 71.564 326.169 93.782 328.362L63.22 365.744C47.564 384.772 40.064 410.033 42.72 435.059C45.252 458.738 56.439 479.457 73.939 493.238C108.095 521.224 164.376 515.727 193.407 480.475L224 443.093L254.625 480.506C271.093 500.521 295.249 512 320.937 512C340.436 512 359.311 505.328 373.811 493.442C391.561 479.457 402.748 458.738 405.28 435.043C407.936 410.033 400.436 384.772 384.811 365.791L354.218 328.362C376.436 326.169 396.998 315.316 411.561 297.839C427.904 278.278 434.936 252.422 430.873 226.911ZM387.03 277.245C386.998 277.26 386.998 277.26 386.998 277.26C376.717 289.617 361.717 296.696 345.843 296.696H322.874C316.155 296.696 310.218 300.908 307.905 307.188L307.843 307.173C304.999 312.826 305.749 319.639 309.749 324.556L360.092 386.166C370.342 398.585 375.186 415.169 373.467 431.644C371.874 446.632 364.967 459.615 353.811 468.4C332.749 485.721 297.406 482.166 279.343 460.147L246.219 419.68C240.687 412.961 232.594 409.109 224 409.109S207.313 412.961 201.75 419.711L168.688 460.116C150.563 482.166 115.595 485.987 93.939 468.197C83.033 459.615 76.126 446.632 74.533 431.66C72.814 415.169 77.658 398.585 87.939 386.119L138.251 324.556C141.313 320.797 142.001 314.972 140.876 309.913C140.751 309.162 140.563 308.41 140.313 307.658C138.126 301.112 132.001 296.696 125.126 296.696H102.157C86.283 296.696 71.283 289.617 60.97 277.245C50.595 264.826 46.127 248.319 48.752 231.954C52.908 205.722 77.126 185.927 105.064 185.927H142.782C148.688 185.927 154.094 182.669 156.876 177.454C159.657 172.255 159.376 165.928 156.094 160.995C146.969 147.276 142.157 131.177 142.157 114.451C142.157 92.072 150.688 71.055 166.219 55.285C197.094 23.838 251.031 23.932 281.781 55.285C297.312 71.055 305.843 92.072 305.843 114.451C305.843 131.177 301.031 147.276 291.906 160.995C288.624 165.928 288.343 172.255 291.124 177.454C293.906 182.669 299.312 185.927 305.218 185.927H342.936C370.874 185.927 395.092 205.722 399.248 231.97C401.873 248.319 397.405 264.826 387.03 277.245ZM256.006 78.995C247.256 78.995 240.006 86.262 240.006 95.032S247.256 111.068 256.006 111.068C264.757 111.068 272.007 103.802 272.007 95.032S264.757 78.995 256.006 78.995Z"/></svg>
